sources/design/Outline/Thorn_capital.svg

<svg:svg xmlns:cc="http://creativecommons.org/ns#" xmlns:dc="http://purl.org/dc/elements/1.1/" xmlns:inkscape="http://www.inkscape.org/namespaces/inkscape" xmlns:rdf="http://www.w3.org/1999/02/22-rdf-syntax-ns#" xmlns:sodipodi="http://sodipodi.sourceforge.net/DTD/sodipodi-0.dtd" xmlns:svg="http://www.w3.org/2000/svg" xml:space="preserve" width="1000" height="1000" version="1.1" style="clip-rule:evenodd;fill-rule:evenodd;image-rendering:optimizeQuality;shape-rendering:geometricPrecision;text-rendering:geometricPrecision" viewBox="0 0 1000 1000" id="svg10" sodipodi:docname="Thorn_capital.svg" inkscape:version="1.0.2 (e86c870879, 2021-01-15)"><svg:metadata id="metadata14"><rdf:RDF><cc:Work rdf:about=""><dc:format>image/svg+xml</dc:format><dc:type rdf:resource="http://purl.org/dc/dcmitype/StillImage" /><dc:title /></cc:Work></rdf:RDF></svg:metadata><sodipodi:namedview pagecolor="#ffffff" bordercolor="#666666" borderopacity="1" objecttolerance="10" gridtolerance="10" guidetolerance="10" inkscape:pageopacity="0" inkscape:pageshadow="2" inkscape:window-width="1920" inkscape:window-height="1007" id="namedview12" showgrid="false" inkscape:zoom="0.6002692" inkscape:cx="49.948381" inkscape:cy="312.61385" inkscape:window-x="1920" inkscape:window-y="0" inkscape:window-maximized="1" inkscape:current-layer="svg10" showguides="true" inkscape:guide-bbox="true" inkscape:document-rotation="0" inkscape:pagecheckerboard="0"><sodipodi:guide position="0,1000" orientation="0,1" id="guide16" inkscape:label="" inkscape:locked="true" inkscape:color="rgb(0,0,255)" /><sodipodi:guide position="1763.3122,2036.1693" orientation="1000,0" id="guide18" /><sodipodi:guide position="0,200" orientation="0,1" id="guide20" inkscape:label="base" inkscape:locked="true" inkscape:color="rgb(0,0,255)" /><inkscape:grid type="xygrid" id="grid24" originx="-473.37552" originy="-489.69235" /><sodipodi:guide position="0,0" orientation="0,1" id="guide34" inkscape:label="bottom" inkscape:locked="true" inkscape:color="rgb(0,0,255)" /><sodipodi:guide position="225.05109,1693.3186" orientation="0,1" id="guide44" inkscape:label="" inkscape:locked="false" inkscape:color="rgb(0,0,255)" /><sodipodi:guide position="0,900" orientation="0,1" id="guide46" inkscape:label="" inkscape:locked="true" inkscape:color="rgb(0,0,255)" /><sodipodi:guide position="642.00062,532.34083" orientation="1,0" id="guide841" inkscape:label="width" />    <sodipodi:guide position="-210.85892,799.74293" orientation="0,-1" id="guide856" /></sodipodi:namedview>
 <svg:defs id="defs4"><inkscape:path-effect effect="fillet_chamfer" id="path-effect858" is_visible="true" lpeversion="1" satellites_param="F,0,1,1,0,20.381,0,1 @ F,0,1,1,0,20.381,0,1 @ F,0,0,1,0,0,0,1 @ F,0,1,1,0,20.381,0,1 @ F,0,1,1,0,20.381,0,1 @ F,0,0,1,0,0,0,1 @ F,0,0,1,0,0,0,1 | F,0,0,1,0,0,0,1 @ F,0,0,1,0,0,0,1 @ F,0,0,1,0,0,0,1 @ F,0,0,1,0,0,0,1 @ F,0,0,1,0,0,0,1 @ F,0,0,1,0,0,0,1 @ F,0,0,1,0,0,0,1 @ F,0,0,1,0,0,0,1 @ F,0,0,1,0,0,0,1 @ F,0,0,1,0,0,0,1 @ F,0,0,1,0,0,0,1 @ F,0,0,1,0,0,0,1 @ F,0,0,1,0,0,0,1 @ F,0,0,1,0,0,0,1 @ F,0,0,1,0,0,0,1 @ F,0,0,1,0,0,0,1 @ F,0,0,1,0,0,0,1 @ F,0,0,1,0,0,0,1" unit="px" method="auto" mode="F" radius="0" chamfer_steps="1" flexible="false" use_knot_distance="true" apply_no_radius="true" apply_with_radius="true" only_selected="true" hide_knots="false" /><inkscape:path-effect effect="spiro" id="path-effect859" is_visible="true" lpeversion="1" /><inkscape:path-effect effect="spiro" id="path-effect137" is_visible="true" lpeversion="1" /><inkscape:path-effect effect="spiro" id="path-effect133" is_visible="true" lpeversion="1" /><inkscape:path-effect effect="spiro" id="path-effect114" is_visible="true" lpeversion="1" /><inkscape:path-effect effect="spiro" id="path-effect853" is_visible="true" lpeversion="1" /><inkscape:path-effect effect="spiro" id="path-effect928" is_visible="true" lpeversion="1" /><inkscape:path-effect effect="spiro" id="path-effect921" is_visible="true" lpeversion="1" /><inkscape:path-effect effect="spiro" id="path-effect917" is_visible="true" lpeversion="1" /><inkscape:path-effect effect="spiro" id="path-effect849" is_visible="true" lpeversion="1" /><inkscape:path-effect effect="spiro" id="path-effect851" is_visible="true" lpeversion="1" />
  <svg:style type="text/css" id="style2">
   
    .fil0 {fill:#EF7F1A;fill-rule:nonzero}
   
  </svg:style>
 <inkscape:path-effect effect="spiro" id="path-effect1214" is_visible="true" lpeversion="1" /><inkscape:path-effect effect="spiro" id="path-effect1195" is_visible="true" lpeversion="1" /><inkscape:path-effect effect="spiro" id="path-effect992" is_visible="true" lpeversion="1" /><inkscape:path-effect effect="spiro" id="path-effect1060" is_visible="true" lpeversion="1" /><inkscape:path-effect effect="spiro" id="path-effect1047" is_visible="true" lpeversion="1" /><inkscape:path-effect effect="spiro" id="path-effect1085" is_visible="true" lpeversion="1" /><inkscape:path-effect effect="spiro" id="path-effect1286" is_visible="true" lpeversion="1" /><inkscape:path-effect effect="spiro" id="path-effect117" is_visible="true" lpeversion="1" /></svg:defs>
 
<svg:g id="path857"><svg:path style="color:#000000;clip-rule:nonzero;fill:#1a5fb4;fill-rule:nonzero;stroke-linecap:round;stroke-linejoin:round;-inkscape-stroke:none;paint-order:fill stroke markers;shape-rendering:auto" d="M 29.695312,-30.0 C 16.1879,-30.0 1.9443918,-23.931622 -6.8574219,-12.808594 C -15.659236,-1.6855652 -18.273714,13.395126 -15.308594,26.478516 C -6.980015,63.227792 -0.01667497,100.2869 5.5605469,137.55273 C 25.619625,271.5833 27.71888,408.39394 16.328125,544.13477 C 9.8491986,621.34254 -0.96733011,698.19172 -16.048828,774.18945 C -18.675006,787.4231199999999 -15.598655,802.26928 -6.7558594,813.1132799999999 C 2.0869364,823.95728 16.133068,830.0 29.695312,830.0 L 126.75586,830.0 C 154.22502,830.0 177.17597999999998,806.95707 177.04687,779.47852 C 177.00667,770.92961 176.90923,762.38091 176.86328,753.83203 C 197.81322,754.23517 218.7596,754.79453 239.71094,755.11719 C 284.3544,755.8047200000001 331.10669,756.47181 378.60937,748.2168 C 455.75296000000003,734.81079 529.18957,697.64485 583.24414,639.5625 C 637.44105,581.3272 670.21727,503.15474 669.32422,422.58789 C 668.44506,343.27435 635.05507,267.08512 581.53711,210.07227 C 528.16648,153.21636 456.55709,116.32564 381.20508,101.33203 C 331.68397,91.478276 282.59535,91.028979 235.60352,90.861328 C 212.8835,90.780268 190.16328,90.862828 167.44335999999998,90.966797 C 166.89954999999998,67.18905699999999 166.44795,43.409487 165.85936999999998,19.632812 C 165.17948,-7.8328446 142.44065,-30.0 114.97656,-30.0 L 29.695312,-30.0 M 46.847656,30.0 L 106.07422,30.0 C 106.57679,50.497037 106.97019999999999,70.996314 107.43945,91.494141 C 92.94655399999999,91.664358 78.45275899999999,91.762311 63.960936999999994,92.007812 A 30.003,30.003 0.0 0,0 59.10742199999999,93.074219 C 55.45447,71.967585 51.354967,50.940817 46.847656,30.0 M 235.39062,150.86133 C 282.01938,151.02768 327.19418,151.7628 369.49414,160.17969000000002 C 433.42888,172.90148000000002 493.964,204.44766 537.79102,251.13672000000003 C 581.4707,297.66882000000004 608.6331700000001,360.55682 609.32812,423.25195 C 610.03364,486.89999 583.38057,551.34628 539.32227,598.6875 C 495.12162,646.1816699999999 433.28648,677.81446 368.33594,689.1015600000001 C 328.04518,696.10329 285.08997999999997,695.8096300000001 240.63477,695.1250000000001 C 219.23234,694.7953900000001 197.83456,694.2263900000002 176.43359,693.8125000000001 C 176.30219,674.9297700000001 176.18892,656.0465800000001 176.0293,637.1640600000001 C 243.67684000000003,653.1603100000001 315.6853,662.75836 387.72656,648.0898400000001 C 441.27056,637.1876100000001 493.44028000000003,612.4675500000001 532.97852,571.7714800000001 C 572.81206,530.7714500000001 597.85569,474.2839600000001 594.92773,415.1953100000001 C 591.80165,352.10817000000014 557.47692,295.87245000000013 510.76367,257.7187500000001 C 464.48658,219.9212900000001 407.98186999999996,199.76068000000012 352.05664,190.39453000000012 C 292.18134000000003,180.3668300000001 228.96586000000002,182.15922000000012 169.87695000000002,200.66406000000012 C 169.54604000000003,184.09681000000012 169.12608000000003,167.53165000000013 168.77344000000002,150.96484000000012 C 190.97906000000003,150.8660400000001 213.18492000000003,150.78211000000013 235.39062,150.86133000000012 L 235.39062,150.86133 M 108.77148000000001,151.48242000000002 C 109.30176000000002,176.37061000000003 109.88798000000001,201.25730000000001 110.36914000000002,226.14648000000003 C 106.46296000000001,228.30812000000003 102.67358000000002,230.65604000000002 98.86328100000001,232.98047000000003 L 95.66015600000001,151.63867000000002 C 100.03054000000002,151.58077000000003 104.40101000000001,151.53342 108.77148000000001,151.48242000000002 M 269.48047,244.58008 C 293.64325,243.79136 318.09899,245.54293 342.14648,249.57031 C 390.62986,257.69013 437.09551999999996,275.0203 472.80859,304.18945 C 508.08551,333.00237000000004 532.88682,375.51821 535.0,418.16406 C 536.9749,458.01935000000003 519.14153,499.90773 489.94336,529.96094 C 460.44988,560.31811 419.28538,580.43371 375.75586,589.29687 C 312.14997999999997,602.24784 243.60421,592.27011 175.49804999999998,575.20898 C 174.93197999999998,519.09775 174.28014,462.98707 173.46483999999998,406.87891 C 172.77209,359.20363000000003 171.89416999999997,311.5317 171.02147999999997,263.85937 C 201.95641999999998,251.91209 235.41419999999997,245.69207 269.48046999999997,244.58008 L 269.48047,244.58008 M 111.57227000000003,296.58984 C 112.21957000000003,333.64340999999996 112.93226000000003,370.69664 113.47070000000004,407.75194999999997 C 114.20139000000003,458.03738999999996 114.76278000000003,508.32532999999995 115.29297000000004,558.61328 C 102.70736000000004,554.83577 90.16013300000004,550.92971 77.68164100000004,546.8125 A 30.003,30.003 0.0 0,0 76.29101600000004,546.70703 C 82.56909700000004,470.83909000000006 84.61230900000004,394.46938 81.93554700000004,318.20117000000005 A 30.003,30.003 0.0 0,0 91.27343700000004,312.98047 C 97.71482100000004,307.13667000000004 104.56031000000004,301.75191 111.57227000000005,296.58984000000004 L 111.57227000000003,296.58984 M 100.39453000000003,616.8164099999999 C 105.54750000000003,618.3539199999999 110.74500000000003,619.7362199999999 115.91406000000003,621.2187499999999 C 116.12550000000003,645.0069399999999 116.25726000000003,668.7954399999999 116.42383000000004,692.5839799999999 C 112.34006000000004,692.4899799999998 108.25557000000003,692.4310699999999 104.17188000000004,692.3339799999999 L 100.39453000000003,616.8164099999999 M 51.458984,738.81445 A 30.003,30.003 0.0 0,0 74.841797,751.74609 C 88.844235,752.10289 102.85021,752.28463 116.85352,752.60547 C 116.88492000000001,758.40373 116.94782000000001,764.20172 116.97656,770.0 L 45.722656,770.0 C 47.701566,759.61684 49.634752,749.22582 51.458984,738.81445" id="path23283" /></svg:g></svg:svg>

<svg:svg xmlns:cc="http://creativecommons.org/ns#" xmlns:dc="http://purl.org/dc/elements/1.1/" xmlns:inkscape="http://www.inkscape.org/namespaces/inkscape" xmlns:rdf="http://www.w3.org/1999/02/22-rdf-syntax-ns#" xmlns:sodipodi="http://sodipodi.sourceforge.net/DTD/sodipodi-0.dtd" xmlns:svg="http://www.w3.org/2000/svg" xml:space="preserve" width="1000" height="1000" version="1.1" style="clip-rule:evenodd;fill-rule:evenodd;image-rendering:optimizeQuality;shape-rendering:geometricPrecision;text-rendering:geometricPrecision" viewBox="0 0 1000 1000" id="svg10" sodipodi:docname="Thorn_capital.svg" inkscape:version="1.0.2 (e86c870879, 2021-01-15)"><svg:metadata id="metadata14"><rdf:RDF><cc:Work rdf:about=""><dc:format>image/svg+xml</dc:format><dc:type rdf:resource="http://purl.org/dc/dcmitype/StillImage" /><dc:title /></cc:Work></rdf:RDF></svg:metadata><sodipodi:namedview pagecolor="#ffffff" bordercolor="#666666" borderopacity="1" objecttolerance="10" gridtolerance="10" guidetolerance="10" inkscape:pageopacity="0" inkscape:pageshadow="2" inkscape:window-width="1920" inkscape:window-height="1007" id="namedview12" showgrid="false" inkscape:zoom="0.6002692" inkscape:cx="49.948381" inkscape:cy="312.61385" inkscape:window-x="1920" inkscape:window-y="0" inkscape:window-maximized="1" inkscape:current-layer="svg10" showguides="true" inkscape:guide-bbox="true" inkscape:document-rotation="0" inkscape:pagecheckerboard="0"><sodipodi:guide position="0,1000" orientation="0,1" id="guide16" inkscape:label="" inkscape:locked="true" inkscape:color="rgb(0,0,255)" /><sodipodi:guide position="1763.3122,2036.1693" orientation="1000,0" id="guide18" /><sodipodi:guide position="0,200" orientation="0,1" id="guide20" inkscape:label="base" inkscape:locked="true" inkscape:color="rgb(0,0,255)" /><inkscape:grid type="xygrid" id="grid24" originx="-473.37552" originy="-489.69235" /><sodipodi:guide position="0,0" orientation="0,1" id="guide34" inkscape:label="bottom" inkscape:locked="true" inkscape:color="rgb(0,0,255)" /><sodipodi:guide position="225.05109,1693.3186" orientation="0,1" id="guide44" inkscape:label="" inkscape:locked="false" inkscape:color="rgb(0,0,255)" /><sodipodi:guide position="0,900" orientation="0,1" id="guide46" inkscape:label="" inkscape:locked="true" inkscape:color="rgb(0,0,255)" /><sodipodi:guide position="642.00062,532.34083" orientation="1,0" id="guide841" inkscape:label="width" />    <sodipodi:guide position="-210.85892,799.74293" orientation="0,-1" id="guide856" /></sodipodi:namedview>
 <svg:defs id="defs4"><inkscape:path-effect effect="fillet_chamfer" id="path-effect858" is_visible="true" lpeversion="1" satellites_param="F,0,1,1,0,20.381,0,1 @ F,0,1,1,0,20.381,0,1 @ F,0,0,1,0,0,0,1 @ F,0,1,1,0,20.381,0,1 @ F,0,1,1,0,20.381,0,1 @ F,0,0,1,0,0,0,1 @ F,0,0,1,0,0,0,1 | F,0,0,1,0,0,0,1 @ F,0,0,1,0,0,0,1 @ F,0,0,1,0,0,0,1 @ F,0,0,1,0,0,0,1 @ F,0,0,1,0,0,0,1 @ F,0,0,1,0,0,0,1 @ F,0,0,1,0,0,0,1 @ F,0,0,1,0,0,0,1 @ F,0,0,1,0,0,0,1 @ F,0,0,1,0,0,0,1 @ F,0,0,1,0,0,0,1 @ F,0,0,1,0,0,0,1 @ F,0,0,1,0,0,0,1 @ F,0,0,1,0,0,0,1 @ F,0,0,1,0,0,0,1 @ F,0,0,1,0,0,0,1 @ F,0,0,1,0,0,0,1 @ F,0,0,1,0,0,0,1" unit="px" method="auto" mode="F" radius="0" chamfer_steps="1" flexible="false" use_knot_distance="true" apply_no_radius="true" apply_with_radius="true" only_selected="true" hide_knots="false" /><inkscape:path-effect effect="spiro" id="path-effect859" is_visible="true" lpeversion="1" /><inkscape:path-effect effect="spiro" id="path-effect137" is_visible="true" lpeversion="1" /><inkscape:path-effect effect="spiro" id="path-effect133" is_visible="true" lpeversion="1" /><inkscape:path-effect effect="spiro" id="path-effect114" is_visible="true" lpeversion="1" /><inkscape:path-effect effect="spiro" id="path-effect853" is_visible="true" lpeversion="1" /><inkscape:path-effect effect="spiro" id="path-effect928" is_visible="true" lpeversion="1" /><inkscape:path-effect effect="spiro" id="path-effect921" is_visible="true" lpeversion="1" /><inkscape:path-effect effect="spiro" id="path-effect917" is_visible="true" lpeversion="1" /><inkscape:path-effect effect="spiro" id="path-effect849" is_visible="true" lpeversion="1" /><inkscape:path-effect effect="spiro" id="path-effect851" is_visible="true" lpeversion="1" />
  <svg:style type="text/css" id="style2">
   
    .fil0 {fill:#EF7F1A;fill-rule:nonzero}
   
  </svg:style>
 <inkscape:path-effect effect="spiro" id="path-effect1214" is_visible="true" lpeversion="1" /><inkscape:path-effect effect="spiro" id="path-effect1195" is_visible="true" lpeversion="1" /><inkscape:path-effect effect="spiro" id="path-effect992" is_visible="true" lpeversion="1" /><inkscape:path-effect effect="spiro" id="path-effect1060" is_visible="true" lpeversion="1" /><inkscape:path-effect effect="spiro" id="path-effect1047" is_visible="true" lpeversion="1" /><inkscape:path-effect effect="spiro" id="path-effect1085" is_visible="true" lpeversion="1" /><inkscape:path-effect effect="spiro" id="path-effect1286" is_visible="true" lpeversion="1" /><inkscape:path-effect effect="spiro" id="path-effect117" is_visible="true" lpeversion="1" /></svg:defs>
 
<svg:g id="path857"><svg:path style="color:#000000;clip-rule:nonzero;fill:#1a5fb4;fill-rule:nonzero;stroke-linecap:round;stroke-linejoin:round;-inkscape-stroke:none;shape-rendering:auto" d="M 29.695312,-30 C 16.1879,-30 1.9443918,-23.931622 -6.8574219,-12.808594 -15.659236,-1.6855652 -18.273714,13.395126 -15.308594,26.478516 -6.980015,63.227792 -0.01667497,100.2869 5.5605469,137.55273 25.619625,271.5833 27.71888,408.39394 16.328125,544.13477 9.8491986,621.34254 -0.96733011,698.19172 -16.048828,774.18945 c -2.626178,13.23367 0.450173,28.07983 9.2929686,38.92383 C 2.0869364,823.95728 16.133068,830 29.695312,830 h 97.060548 c 27.46916,0 50.42012,-23.04293 50.29101,-50.52148 -0.0402,-8.54891 -0.13764,-17.09761 -0.18359,-25.64649 20.94994,0.40314 41.89632,0.9625 62.84766,1.28516 44.64346,0.68753 91.39575,1.35462 138.89843,-6.90039 77.14359,-13.40601 150.5802,-50.57195 204.63477,-108.6543 54.19691,-58.2353 86.97313,-136.40776 86.08008,-216.97461 C 668.44506,343.27435 635.05507,267.08512 581.53711,210.07227 528.16648,153.21636 456.55709,116.32564 381.20508,101.33203 331.68397,91.478276 282.59535,91.028979 235.60352,90.861328 c -22.72002,-0.08106 -45.44024,0.0015 -68.16016,0.105469 -0.54381,-23.77774 -0.99541,-47.55731 -1.58399,-71.333985 C 165.17948,-7.8328446 142.44065,-30 114.97656,-30 Z m 17.152344,60 h 59.226564 c 0.50257,20.497037 0.89598,40.996314 1.36523,61.494141 -14.492896,0.170217 -28.986691,0.26817 -43.478513,0.513671 a 30.003,30.003 0 0 0 -4.853515,1.066407 C 55.45447,71.967585 51.354967,50.940817 46.847656,30 Z M 235.39062,150.86133 c 46.62876,0.16635 91.80356,0.90147 134.10352,9.31836 63.93474,12.72179 124.46986,44.26797 168.29688,90.95703 43.67968,46.5321 70.84215,109.4201 71.5371,172.11523 0.70552,63.64804 -25.94755,128.09433 -70.00585,175.43555 -44.20065,47.49417 -106.03579,79.12696 -170.98633,90.41406 -40.29076,7.00173 -83.24596,6.70807 -127.70117,6.02344 -21.40243,-0.32961 -42.80021,-0.89861 -64.20118,-1.3125 -0.1314,-18.88273 -0.24467,-37.76592 -0.40429,-56.64844 67.64754,15.99625 139.656,25.5943 211.69726,10.92578 53.544,-10.90223 105.71372,-35.62229 145.25196,-76.31836 39.83354,-41.00003 64.87717,-97.48752 61.94921,-156.57617 -3.12608,-63.08714 -37.45081,-119.32286 -84.16406,-157.47656 -46.27709,-37.79746 -102.7818,-57.95807 -158.70703,-67.32422 -59.8753,-10.0277 -123.09078,-8.23531 -182.17969,10.26953 -0.33091,-16.56725 -0.75087,-33.13241 -1.10351,-49.69922 22.20562,-0.0988 44.41148,-0.18273 66.61718,-0.10351 z m -126.61914,0.62109 c 0.53028,24.88819 1.1165,49.77488 1.59766,74.66406 -3.90618,2.16164 -7.69556,4.50956 -11.505859,6.83399 l -3.203125,-81.3418 c 4.370384,-0.0579 8.740854,-0.10525 13.111324,-0.15625 z m 160.70899,93.09766 c 24.16278,-0.78872 48.61852,0.96285 72.66601,4.99023 48.48338,8.11982 94.94904,25.44999 130.66211,54.61914 35.27692,28.81292 60.07823,71.32876 62.19141,113.97461 1.9749,39.85529 -15.85847,81.74367 -45.05664,111.79688 -29.49348,30.35717 -70.65798,50.47277 -114.1875,59.33593 -63.60588,12.95097 -132.15165,2.97324 -200.25781,-14.08789 -0.56607,-56.11123 -1.21791,-112.22191 -2.03321,-168.33007 -0.69275,-47.67528 -1.57067,-95.34721 -2.44336,-143.01954 30.93494,-11.94728 64.39272,-18.1673 98.45899,-19.27929 z m -157.9082,52.00976 c 0.6473,37.05357 1.35999,74.1068 1.89843,111.16211 0.73069,50.28544 1.29208,100.57338 1.82227,150.86133 -12.58561,-3.77751 -25.132837,-7.68357 -37.611329,-11.80078 a 30.003,30.003 0 0 0 -1.390625,-0.10547 c 6.278081,-75.86794 8.321293,-152.23765 5.644531,-228.50586 a 30.003,30.003 0 0 0 9.33789,-5.2207 c 6.441384,-5.8438 13.286873,-11.22856 20.298833,-16.39063 z m -11.17774,320.22657 c 5.15297,1.53751 10.35047,2.91981 15.51953,4.40234 0.21144,23.78819 0.3432,47.57669 0.50977,71.36523 -4.08377,-0.094 -8.16826,-0.15291 -12.25195,-0.25 z M 51.458984,738.81445 a 30.003,30.003 0 0 0 23.382813,12.93164 c 14.002438,0.3568 28.008413,0.53854 42.011723,0.85938 0.0314,5.79826 0.0943,11.59625 0.12304,17.39453 H 45.722656 c 1.97891,-10.38316 3.912096,-20.77418 5.736328,-31.18555 z" id="path23201" /></svg:g></svg:svg>
